X: 1952
T: Yalan Değil
C: Yusuf Nalkesen
O: Turkey
F: http://compmusic.upf.edu/node/140
N: hicaz--sarki--duyek--yalan_degil--yusuf_nalkesen
N: makam= hicaz
N: form= sarki
N: usul= duyek = 8/4
M: 8/4
L: 1/16
K: C _7/8B ^f ^c 
Q: 1/4=120
%%MIDI tuningsystem comma53
g2 a14  | a2 b14  | a2 =c'2 b2 a2 g2 fe f2 g2  | \
w:  Ya lan   |  ya lan   |  ya lan  *  *  *  *  *  *  de  | 
a2 g2 =f2 e2 d2 c2 B2 A2  | 
w:  ğil   | 
z2 d4 cB A8  | z2 d4 d2 d2 d6  | e2 fg {g}f2 e2 d8  | \
w:  pek  ko *  lay   |  ol ma ya cak   |  u nut *  *  *  *  mak    | 
f2 ga {a}g2 f2 e8  | 
w:  u nut *  *  *  *  mak    | 
a2 a2 g2 =f2 e2 d2 c2 BA  | d16  | (3d2e2f2 (3e2f2g2 (3f2g2a2 (3g2=f2e2  | 
w:  u nut  |  mak    |  SAZ  | 
e2 e4 d2 c2 B2 A4  | g2 a14  | a2 b14  | \
w:  SAZ  |  Ya lan   |  ya lan   | 
a2 =c'2 b2 a2 g2 fe f2 g2  | a2 g2 =f2 e2 d2 c2 B2 A2  | 
w:  ya lan  *  *  *  *  *  *  de  |  ğil   | 
z2 d4 cB A8  | z2 d4 d2 d2 d6  | e2 fg {g}f2 e2 d8  | \
w:  pek  ko *  lay   |  ol ma ya cak   |  u nut *  *  *  *  mak    | 
f2 ga {a}g2 f2 e8  | 
w:  u nut *  *  *  *  mak    | 
a2 a2 g2 =f2 e2 d2 c2 BA  | d16  | (3d2e2f2 (3e2f2g2 (3f2g2a2 (3g2=f2e2  | 
w:  u nut  |  mak    |  SAZ  | 
e2 e4 d2 g2 fe e4  | z2 g4 g2 g6 f2  | \
w:  SAZ  |  Öy le  zor   | 
z2 a4 g2 =f2 fe d4  | z2 A2 c2 e2 ge =fd e4  | 
w:  öy le  zor  *  *  ki   |  SAZ  | 
A2 B6 AB cA B4  | d2 e6 de =fd e4  | \
w:  se ni  SAZ  |  se ni  SAZ  | 
d2 a6 g=f ed cB Ac  | 
w:  se ni   | 
B16  | A2 B4 A2 e4 c2 BA  | A16  | (3d2e2f2 (3e2f2g2 (3f2g2a2 (3g2=f2e2  | 
w:  ah   |  i çim *  den  at  |  mak    |  SAZ  | 
e2 e4 d2 g2 fe e4  | z2 g4 g2 g6 f2  | \
w:   |  Öy le  zor   | 
z2 a4 g2 =f2 fe d4  | z2 A2 c2 e2 ge =fd e4  | 
w:  öy le  zor  *  *  ki   |  SAZ  | 
A2 B6 AB cA B4  | d2 e6 de =fd e4  | \
w:  se ni  SAZ  |  se ni  SAZ  | 
d2 a6 g=f ed cB Ac  | 
w:  se ni   | 
B16  | A2 B4 A2 e4 c2 BA  | A16  | (3d2e2=f2 (3e2f2g2 (3f2g2a2 (3g2f2g2  | 
w:  ah   |  i çim *  den  at  |  mak    |  SAZ  | 
a2 a4 g2 fe fg a4  | z2 a4 a2 a4 a4  | \
w:   |  İs te mem  o   | 
a2 ba g2 a2 b8  | a2 =c'2 =b2 a2 a2 a2 g2 f2  | 
w:  gü nah *  *  *  kâr   |  *  el *  le ri ni   | 
e2 fe f2 g2 e8  | z2 d4 e2 f2 g2 a4  | \
w:  *  bir  *  *  da ha    |  el le ri *  me   | 
g2 =f2 e2 d2 c2 B2 A4  | z2 d4 d2 d4 d4  | 
w:  a lıp  *  *  da   |  ne  öp mek  ne   | 
c2 =Bc B2 c2 d8  | (3d2e2f2 (3e2f2g2 (3f2g2a2 (3g2=f2e2  | \
w:  *  ok *  *  şa mak    |  SAZ  | 
e2 e4 d2 g2 fe e4  | 
w:   | 
z2 g4 g2 g6 f2  | z2 a4 g2 =f2 fe d4  | \
w:  Öy le  zor   |  öy le  zor  *  *  ki   | 
z2 A2 c2 e2 ge =fd e4  | 
w:  SAZ  | 
A2 B6 AB cA B4  | d2 e6 de =fd e4  | \
w:  se ni  SAZ  |  se ni  SAZ  | 
d2 a6 g=f ed cB Ac  | 
w:  se ni   | 
B16  | A2 B4 A2 e4 c2 BA  | A16  | |


